modules/hawcons-stroke/icons/icon-26-thumb-finger-tap.svg

<?xml version="1.0" encoding="UTF-8" standalone="no"?>
<svg width="32px" height="32px" viewBox="0 0 32 32" version="1.1" xmlns="http://www.w3.org/2000/svg" xmlns:xlink="http://www.w3.org/1999/xlink" xmlns:sketch="http://www.bohemiancoding.com/sketch/ns">
    <!-- Generator: Sketch 3.0.3 (7891) - http://www.bohemiancoding.com/sketch -->
    <title>icon 26 thumb finger tap</title>
    <desc>Created with Sketch.</desc>
    <defs></defs>
    <g id="Page-1" stroke="none" stroke-width="1" fill="none" fill-rule="evenodd" sketch:type="MSPage">
        <g id="icon-26-thumb-finger-tap" sketch:type="MSArtboardGroup" fill="#929292">
            <path d="M11,11.6713327 C10.1750223,10.6518334 8.9136331,10 7.5,10 C5.0147185,10 3,12.0147185 3,14.5 C3,16.5732053 4.40199938,18.3189559 6.3096201,18.8408738 C6.06606013,18.3779083 5.84772019,17.9222607 5.66233169,17.4793257 C4.66471538,16.8626795 4,15.7589661 4,14.5 C4,12.5670033 5.56700328,11 7.5,11 C8.90469059,11 10.1161076,11.8275019 10.6733633,13.021618 C10.7831605,13.0907755 10.8920977,13.1623393 11,13.2359133 L11,11.6713327 L11,11.6713327 L11,11.6713327 Z M18,9.32866727 C18.6253999,8.55580421 19,7.57164839 19,6.5 C19,4.0147185 16.9852815,2 14.5,2 C12.0147185,2 10,4.0147185 10,6.5 C10,7.57164839 10.3746001,8.55580421 11,9.32866727 L11,6.49129639 C11,4.56125662 12.5670034,3 14.5,3 C16.4290634,3 18,4.56310664 18,6.49129639 L18,9.32866727 L18,9.32866727 L18,9.32866727 Z M20.4987391,29.9999999 C24.6415711,30 28,26.4147752 28,22.5 C28,22.5 28,24.8132437 28,22.5 L28,18.7491622 L28,16.5016756 C28,15.6723231 27.3342028,15 26.5,15 C25.6715729,15 25,15.6711894 25,16.5016756 L25,17 L24,17 L24,14.5064385 C24,13.6744555 23.3342028,13 22.5,13 C21.6715729,13 21,13.6715406 21,14.5064385 L21,16 L20,16 L20,13.5064385 C20,12.6744555 19.3342028,12 18.5,12 C17.6715729,12 17,12.6715406 17,13.5064385 L17,17 L16,17 L16,6.50524116 C16,5.67391942 15.3342028,5 14.5,5 C13.6715729,5 13,5.66712976 13,6.50524116 L13,17.7999878 C10.9416004,15.599567 8.23162978,13.1791206 7.12103271,14.2957153 C6.03386293,15.3887562 8.83536199,18.4007216 12.7473755,24.9830936 C14.5099958,27.9488875 16.7402849,29.9995418 20.4987391,29.9999999 L20.4987391,29.9999999 Z M29,22.5 C29,27.1944206 25.1944206,31 20.5,31.0000003 C17.3870848,31.0000003 14.101807,29.5474856 11.8408204,25.4282229 C8.57733174,19.4825159 4.40385286,15.5832077 6.39111327,13.5959473 C7.81276236,12.1742982 10.0448416,13.5381668 12,15.3667868 L12,15.3667868 L12,6.50840855 C12,5.11541748 13.1192881,4 14.5,4 C15.8903379,4 17,5.12305276 17,6.50840855 L17,11.4983653 C17.4178303,11.1853054 17.937197,11 18.5,11 C19.5825181,11 20.4948851,11.6774672 20.8458175,12.6281239 C21.2865931,12.2379894 21.8657109,12 22.5,12 C23.8903379,12 25,13.1182256 25,14.4976267 L25,14.5110883 C25.4178303,14.1985158 25.937197,14.014191 26.5,14.014191 C27.8903379,14.014191 29,15.1335355 29,16.5143168 L29,22.5 L29,22.5 Z" id="thumb-finger-tap" sketch:type="MSShapeGroup"></path>
        </g>
    </g>
</svg>

<svg width="32" height="32" xmlns="http://www.w3.org/2000/svg"><path d="M11 11.671a4.5 4.5 0 1 0-4.69 7.17 17.243 17.243 0 0 1-.648-1.362 3.5 3.5 0 1 1 5.011-4.458c.11.07.22.141.327.215V11.67zm7-2.342a4.5 4.5 0 1 0-7 0V6.49A3.494 3.494 0 0 1 14.5 3C16.43 3 18 4.563 18 6.491V9.33zM20.499 30C24.642 30 28 26.415 28 22.5c0 0 0 2.313 0 0v-5.998a1.5 1.5 0 0 0-3 0V17h-1v-2.494a1.5 1.5 0 1 0-3 0V16h-1v-2.494a1.5 1.5 0 1 0-3 0V17h-1V6.505a1.499 1.499 0 1 0-3 0V17.8c-2.058-2.2-4.768-4.62-5.879-3.504-1.087 1.093 1.714 4.105 5.626 10.687C14.51 27.95 16.74 30 20.5 30zM29 22.5a8.5 8.5 0 0 1-8.5 8.5c-3.113 0-6.398-1.453-8.66-5.572-3.263-5.945-7.436-9.845-5.449-11.832 1.422-1.422 3.654-.058 5.609 1.77V6.509a2.5 2.5 0 1 1 5 0v4.99A2.493 2.493 0 0 1 18.5 11c1.083 0 1.995.677 2.346 1.628.44-.39 1.02-.628 1.654-.628 1.39 0 2.5 1.118 2.5 2.498v.013a2.495 2.495 0 0 1 1.5-.497c1.39 0 2.5 1.12 2.5 2.5V22.5z" fill="#929292" fill-rule="evenodd"/></svg>
